X: 43451
T: Ye Banks And Braes
R: waltz
M: 3/4
K: Dmajor
A2|d4 d2|e2 d2 e2|f2 a2 f2|e2 d2 e2|f3 e d2|B4 c2|d6-|d2 z2 A2|
d4 d2|e2 d2 e2|f2 a2 f2|e2 d2 e2|f2 e2 d2|B4 c2|d6-|d2 f2 g2|
a4 b2|a2 f2 d2|a4 b2|a2 f2 d2|d2 f2 a2|b2 a2 f2|e6-|e2 A2|
d4 d2|e2 d2 e2|f2 a2 f2|e2 d2 e2|f3 e d2|B4 c2|d6-|d4||

